projects/flag-game/flags/Burundi.svg

<svg viewBox="0 0 1000 643" xmlns="http://www.w3.org/2000/svg"><path d="m19.789062 33.105469h959.519532l-959.519532 575.714843h959.519532zm0 0" fill="#ce1126" fill-rule="evenodd"/><path d="m19.789062 33.105469v575.714843l959.519532-575.714843v575.714843zm0 0" fill="#1eb53a" fill-rule="evenodd"/><path d="m19.789062 33.105469 959.519532 575.714843zm959.519532 0-959.519532 575.714843zm0 0" fill-rule="evenodd"/><path d="m19.789062 33.105469 959.519532 575.714843" fill="none" stroke="#fff" stroke-width="76.761619"/><path d="m979.308594 33.105469-959.519532 575.714843" fill="none" stroke="#fff" stroke-width="76.761619"/><g fill-rule="evenodd"><path d="m662.667969 320.960938c0 90.085937-73.027344 163.117187-163.121094 163.117187-90.082031 0-163.117187-73.03125-163.117187-163.117187 0-90.089844 73.035156-163.117188 163.117187-163.117188 90.09375 0 163.121094 73.027344 163.121094 163.117188zm0 0" fill="#fff"/><path d="m499.546875 198.140625-19.191406 33.242187 33.242187 19.183594zm0 0" fill="#1eb53a"/><path d="m499.546875 198.140625 19.195313 33.242187-33.242188 19.183594zm0 0" fill="#1eb53a"/><path d="m532.789062 255.710938-19.191406-33.238282-33.242187 19.191406zm0 0" fill="#1eb53a"/><path d="m532.789062 255.710938h-38.382812v-38.378907zm0 0" fill="#1eb53a"/><path d="m466.3125 255.710938h38.378906v-38.378907zm0 0" fill="#1eb53a"/><path d="m466.3125 255.710938 19.1875-33.238282 33.242188 19.191406zm0 0" fill="#1eb53a"/><path d="m499.546875 274.902344 19.195313-33.238282-33.242188-19.191406zm0 0" fill="#1eb53a"/><path d="m499.546875 274.902344-19.191406-33.238282 33.242187-19.191406zm0 0" fill="#1eb53a"/><path d="m466.3125 217.332031 19.1875 33.234375 33.242188-19.183594zm0 0" fill="#1eb53a"/><path d="m466.3125 217.332031h38.378906v38.378907zm0 0" fill="#1eb53a"/><path d="m532.789062 217.332031h-38.382812v38.378907zm0 0" fill="#1eb53a"/><path d="m532.789062 217.332031-19.191406 33.234375-33.242187-19.183594zm0 0" fill="#1eb53a"/><path d="m605.914062 382.367188-19.191406-33.234376-33.234375 19.183594zm0 0" fill="#1eb53a"/><path d="m605.914062 382.367188h-38.382812v-38.378907zm0 0" fill="#1eb53a"/><path d="m539.4375 382.367188h38.382812v-38.378907zm0 0" fill="#1eb53a"/><path d="m539.4375 382.367188 19.191406-33.234376 33.234375 19.183594zm0 0" fill="#1eb53a"/><path d="m572.671875 324.796875-19.183594 33.234375 33.234375 19.195312zm0 0" fill="#1eb53a"/><path d="m572.671875 324.796875 19.191406 33.234375-33.234375 19.195312zm0 0" fill="#1eb53a"/><path d="m539.4375 343.988281 19.191406 33.238281 33.234375-19.195312zm0 0" fill="#1eb53a"/><path d="m539.4375 343.988281h38.382812v38.378907zm0 0" fill="#1eb53a"/><path d="m605.914062 343.988281h-38.382812v38.378907zm0 0" fill="#1eb53a"/><path d="m605.914062 343.988281-19.191406 33.238281-33.234375-19.195312zm0 0" fill="#1eb53a"/><path d="m572.671875 401.558594 19.191406-33.242188-33.234375-19.183594zm0 0" fill="#1eb53a"/><path d="m572.671875 401.558594-19.183594-33.242188 33.234375-19.183594zm0 0" fill="#1eb53a"/><path d="m393.183594 382.367188h38.382812v-38.378907zm0 0" fill="#1eb53a"/><path d="m393.183594 382.367188 19.191406-33.234376 33.242188 19.183594zm0 0" fill="#1eb53a"/><path d="m426.425781 324.796875-19.191406 33.234375 33.242187 19.195312zm0 0" fill="#1eb53a"/><path d="m426.425781 324.796875 19.191407 33.234375-33.242188 19.195312zm0 0" fill="#1eb53a"/><path d="m459.660156 382.367188-19.183594-33.234376-33.242187 19.183594zm0 0" fill="#1eb53a"/><path d="m459.660156 382.367188h-38.375v-38.378907zm0 0" fill="#1eb53a"/><path d="m459.660156 343.988281h-38.375v38.378907zm0 0" fill="#1eb53a"/><path d="m459.660156 343.988281-19.183594 33.238281-33.242187-19.195312zm0 0" fill="#1eb53a"/><path d="m426.425781 401.558594 19.191407-33.242188-33.242188-19.183594zm0 0" fill="#1eb53a"/><path d="m426.425781 401.558594-19.191406-33.242188 33.242187-19.183594zm0 0" fill="#1eb53a"/><path d="m393.183594 343.988281 19.191406 33.238281 33.242188-19.195312zm0 0" fill="#1eb53a"/><path d="m393.183594 343.988281h38.382812v38.378907zm0 0" fill="#1eb53a"/><path d="m499.546875 205.050781-15.734375 27.257813 27.257812 15.734375zm0 0" fill="#ce1126"/><path d="m499.546875 205.050781 15.738281 27.257813-27.253906 15.734375zm0 0" fill="#ce1126"/><path d="m526.804688 252.261719-15.734376-27.257813-27.257812 15.738282zm0 0" fill="#ce1126"/><path d="m526.804688 252.261719h-31.472657v-31.476563zm0 0" fill="#ce1126"/><path d="m472.292969 252.261719h31.472656v-31.476563zm0 0" fill="#ce1126"/><path d="m472.292969 252.261719 15.738281-27.257813 27.253906 15.738282zm0 0" fill="#ce1126"/><path d="m499.546875 267.996094 15.738281-27.253906-27.253906-15.738282zm0 0" fill="#ce1126"/><path d="m499.546875 267.996094-15.734375-27.253906 27.257812-15.738282zm0 0" fill="#ce1126"/><path d="m472.292969 220.785156 15.738281 27.257813 27.253906-15.734375zm0 0" fill="#ce1126"/><path d="m472.292969 220.785156h31.472656v31.476563zm0 0" fill="#ce1126"/><path d="m526.804688 220.785156h-31.472657v31.476563zm0 0" fill="#ce1126"/><path d="m526.804688 220.785156-15.734376 27.257813-27.257812-15.734375zm0 0" fill="#ce1126"/><path d="m599.929688 378.910156-15.738282-27.253906-27.25 15.738281zm0 0" fill="#ce1126"/><path d="m599.929688 378.910156h-31.46875v-31.464844zm0 0" fill="#ce1126"/><path d="m545.421875 378.910156h31.46875v-31.464844zm0 0" fill="#ce1126"/><path d="m545.421875 378.910156 15.730469-27.253906 27.257812 15.738281zm0 0" fill="#ce1126"/><path d="m572.671875 331.710938-15.730469 27.253906 27.25 15.730468zm0 0" fill="#ce1126"/><path d="m572.671875 331.710938 15.738281 27.253906-27.257812 15.730468zm0 0" fill="#ce1126"/><path d="m545.421875 347.445312 15.730469 27.25 27.257812-15.730468zm0 0" fill="#ce1126"/><path d="m545.421875 347.445312h31.46875v31.464844zm0 0" fill="#ce1126"/><path d="m599.929688 347.445312h-31.46875v31.464844zm0 0" fill="#ce1126"/><path d="m599.929688 347.445312-15.738282 27.25-27.25-15.730468zm0 0" fill="#ce1126"/><path d="m572.671875 394.648438 15.738281-27.253907-27.257812-15.738281zm0 0" fill="#ce1126"/><path d="m572.671875 394.648438-15.730469-27.253907 27.25-15.738281zm0 0" fill="#ce1126"/><path d="m399.167969 378.910156h31.472656v-31.464844zm0 0" fill="#ce1126"/><path d="m399.167969 378.910156 15.738281-27.253906 27.253906 15.738281zm0 0" fill="#ce1126"/><path d="m426.425781 331.710938-15.734375 27.253906 27.253906 15.730468zm0 0" fill="#ce1126"/><path d="m426.425781 331.710938 15.734375 27.253906-27.253906 15.730468zm0 0" fill="#ce1126"/><path d="m453.679688 378.910156-15.734376-27.253906-27.253906 15.738281zm0 0" fill="#ce1126"/><path d="m453.679688 378.910156h-31.472657v-31.464844zm0 0" fill="#ce1126"/><path d="m453.679688 347.445312h-31.472657v31.464844zm0 0" fill="#ce1126"/><path d="m453.679688 347.445312-15.734376 27.25-27.253906-15.730468zm0 0" fill="#ce1126"/><path d="m426.425781 394.648438 15.734375-27.253907-27.253906-15.738281zm0 0" fill="#ce1126"/><path d="m426.425781 394.648438-15.734375-27.253907 27.253906-15.738281zm0 0" fill="#ce1126"/><path d="m399.167969 347.445312 15.738281 27.25 27.253906-15.730468zm0 0" fill="#ce1126"/><path d="m399.167969 347.445312h31.472656v31.464844zm0 0" fill="#ce1126"/></g></svg>

<?xml version="1.0" encoding="UTF-8"?>
<svg xmlns="http://www.w3.org/2000/svg" xmlns:xlink="http://www.w3.org/1999/xlink" viewBox="0 0 1000 643" version="1.1">
<g id="surface249">
<path style=" stroke:none;fill-rule:evenodd;fill:rgb(80.783081%,6.666565%,14.901733%);fill-opacity:1;" d="M 19.789062 33.105469 L 979.308594 33.105469 L 19.789062 608.820312 L 979.308594 608.820312 Z M 19.789062 33.105469 "/>
<path style=" stroke:none;fill-rule:evenodd;fill:rgb(11.764526%,70.979309%,22.744751%);fill-opacity:1;" d="M 19.789062 33.105469 L 19.789062 608.820312 L 979.308594 33.105469 L 979.308594 608.820312 Z M 19.789062 33.105469 "/>
<path style=" stroke:none;fill-rule:evenodd;fill:rgb(0%,0%,0%);fill-opacity:1;" d="M 19.789062 33.105469 L 979.308594 608.820312 Z M 979.308594 33.105469 L 19.789062 608.820312 Z M 979.308594 33.105469 "/>
<path style="fill:none;stroke-width:76.761619;stroke-linecap:butt;stroke-linejoin:miter;stroke:rgb(99.998474%,99.998474%,99.998474%);stroke-opacity:1;stroke-miterlimit:4;" d="M 19.789062 33.105469 L 979.308594 608.820312 "/>
<path style="fill:none;stroke-width:76.761619;stroke-linecap:butt;stroke-linejoin:miter;stroke:rgb(99.998474%,99.998474%,99.998474%);stroke-opacity:1;stroke-miterlimit:4;" d="M 979.308594 33.105469 L 19.789062 608.820312 "/>
<path style=" stroke:none;fill-rule:evenodd;fill:rgb(99.998474%,99.998474%,99.998474%);fill-opacity:1;" d="M 662.667969 320.960938 C 662.667969 411.046875 589.640625 484.078125 499.546875 484.078125 C 409.464844 484.078125 336.429688 411.046875 336.429688 320.960938 C 336.429688 230.871094 409.464844 157.84375 499.546875 157.84375 C 589.640625 157.84375 662.667969 230.871094 662.667969 320.960938 Z M 662.667969 320.960938 "/>
<path style=" stroke:none;fill-rule:evenodd;fill:rgb(11.764526%,70.979309%,22.744751%);fill-opacity:1;" d="M 499.546875 198.140625 L 480.355469 231.382812 L 513.597656 250.566406 Z M 499.546875 198.140625 "/>
<path style=" stroke:none;fill-rule:evenodd;fill:rgb(11.764526%,70.979309%,22.744751%);fill-opacity:1;" d="M 499.546875 198.140625 L 518.742188 231.382812 L 485.5 250.566406 Z M 499.546875 198.140625 "/>
<path style=" stroke:none;fill-rule:evenodd;fill:rgb(11.764526%,70.979309%,22.744751%);fill-opacity:1;" d="M 532.789062 255.710938 L 513.597656 222.472656 L 480.355469 241.664062 Z M 532.789062 255.710938 "/>
<path style=" stroke:none;fill-rule:evenodd;fill:rgb(11.764526%,70.979309%,22.744751%);fill-opacity:1;" d="M 532.789062 255.710938 L 494.40625 255.710938 L 494.40625 217.332031 Z M 532.789062 255.710938 "/>
<path style=" stroke:none;fill-rule:evenodd;fill:rgb(11.764526%,70.979309%,22.744751%);fill-opacity:1;" d="M 466.3125 255.710938 L 504.691406 255.710938 L 504.691406 217.332031 Z M 466.3125 255.710938 "/>
<path style=" stroke:none;fill-rule:evenodd;fill:rgb(11.764526%,70.979309%,22.744751%);fill-opacity:1;" d="M 466.3125 255.710938 L 485.5 222.472656 L 518.742188 241.664062 Z M 466.3125 255.710938 "/>
<path style=" stroke:none;fill-rule:evenodd;fill:rgb(11.764526%,70.979309%,22.744751%);fill-opacity:1;" d="M 499.546875 274.902344 L 518.742188 241.664062 L 485.5 222.472656 Z M 499.546875 274.902344 "/>
<path style=" stroke:none;fill-rule:evenodd;fill:rgb(11.764526%,70.979309%,22.744751%);fill-opacity:1;" d="M 499.546875 274.902344 L 480.355469 241.664062 L 513.597656 222.472656 Z M 499.546875 274.902344 "/>
<path style=" stroke:none;fill-rule:evenodd;fill:rgb(11.764526%,70.979309%,22.744751%);fill-opacity:1;" d="M 466.3125 217.332031 L 485.5 250.566406 L 518.742188 231.382812 Z M 466.3125 217.332031 "/>
<path style=" stroke:none;fill-rule:evenodd;fill:rgb(11.764526%,70.979309%,22.744751%);fill-opacity:1;" d="M 466.3125 217.332031 L 504.691406 217.332031 L 504.691406 255.710938 Z M 466.3125 217.332031 "/>
<path style=" stroke:none;fill-rule:evenodd;fill:rgb(11.764526%,70.979309%,22.744751%);fill-opacity:1;" d="M 532.789062 217.332031 L 494.40625 217.332031 L 494.40625 255.710938 Z M 532.789062 217.332031 "/>
<path style=" stroke:none;fill-rule:evenodd;fill:rgb(11.764526%,70.979309%,22.744751%);fill-opacity:1;" d="M 532.789062 217.332031 L 513.597656 250.566406 L 480.355469 231.382812 Z M 532.789062 217.332031 "/>
<path style=" stroke:none;fill-rule:evenodd;fill:rgb(11.764526%,70.979309%,22.744751%);fill-opacity:1;" d="M 605.914062 382.367188 L 586.722656 349.132812 L 553.488281 368.316406 Z M 605.914062 382.367188 "/>
<path style=" stroke:none;fill-rule:evenodd;fill:rgb(11.764526%,70.979309%,22.744751%);fill-opacity:1;" d="M 605.914062 382.367188 L 567.53125 382.367188 L 567.53125 343.988281 Z M 605.914062 382.367188 "/>
<path style=" stroke:none;fill-rule:evenodd;fill:rgb(11.764526%,70.979309%,22.744751%);fill-opacity:1;" d="M 539.4375 382.367188 L 577.820312 382.367188 L 577.820312 343.988281 Z M 539.4375 382.367188 "/>
<path style=" stroke:none;fill-rule:evenodd;fill:rgb(11.764526%,70.979309%,22.744751%);fill-opacity:1;" d="M 539.4375 382.367188 L 558.628906 349.132812 L 591.863281 368.316406 Z M 539.4375 382.367188 "/>
<path style=" stroke:none;fill-rule:evenodd;fill:rgb(11.764526%,70.979309%,22.744751%);fill-opacity:1;" d="M 572.671875 324.796875 L 553.488281 358.03125 L 586.722656 377.226562 Z M 572.671875 324.796875 "/>
<path style=" stroke:none;fill-rule:evenodd;fill:rgb(11.764526%,70.979309%,22.744751%);fill-opacity:1;" d="M 572.671875 324.796875 L 591.863281 358.03125 L 558.628906 377.226562 Z M 572.671875 324.796875 "/>
<path style=" stroke:none;fill-rule:evenodd;fill:rgb(11.764526%,70.979309%,22.744751%);fill-opacity:1;" d="M 539.4375 343.988281 L 558.628906 377.226562 L 591.863281 358.03125 Z M 539.4375 343.988281 "/>
<path style=" stroke:none;fill-rule:evenodd;fill:rgb(11.764526%,70.979309%,22.744751%);fill-opacity:1;" d="M 539.4375 343.988281 L 577.820312 343.988281 L 577.820312 382.367188 Z M 539.4375 343.988281 "/>
<path style=" stroke:none;fill-rule:evenodd;fill:rgb(11.764526%,70.979309%,22.744751%);fill-opacity:1;" d="M 605.914062 343.988281 L 567.53125 343.988281 L 567.53125 382.367188 Z M 605.914062 343.988281 "/>
<path style=" stroke:none;fill-rule:evenodd;fill:rgb(11.764526%,70.979309%,22.744751%);fill-opacity:1;" d="M 605.914062 343.988281 L 586.722656 377.226562 L 553.488281 358.03125 Z M 605.914062 343.988281 "/>
<path style=" stroke:none;fill-rule:evenodd;fill:rgb(11.764526%,70.979309%,22.744751%);fill-opacity:1;" d="M 572.671875 401.558594 L 591.863281 368.316406 L 558.628906 349.132812 Z M 572.671875 401.558594 "/>
<path style=" stroke:none;fill-rule:evenodd;fill:rgb(11.764526%,70.979309%,22.744751%);fill-opacity:1;" d="M 572.671875 401.558594 L 553.488281 368.316406 L 586.722656 349.132812 Z M 572.671875 401.558594 "/>
<path style=" stroke:none;fill-rule:evenodd;fill:rgb(11.764526%,70.979309%,22.744751%);fill-opacity:1;" d="M 393.183594 382.367188 L 431.566406 382.367188 L 431.566406 343.988281 Z M 393.183594 382.367188 "/>
<path style=" stroke:none;fill-rule:evenodd;fill:rgb(11.764526%,70.979309%,22.744751%);fill-opacity:1;" d="M 393.183594 382.367188 L 412.375 349.132812 L 445.617188 368.316406 Z M 393.183594 382.367188 "/>
<path style=" stroke:none;fill-rule:evenodd;fill:rgb(11.764526%,70.979309%,22.744751%);fill-opacity:1;" d="M 426.425781 324.796875 L 407.234375 358.03125 L 440.476562 377.226562 Z M 426.425781 324.796875 "/>
<path style=" stroke:none;fill-rule:evenodd;fill:rgb(11.764526%,70.979309%,22.744751%);fill-opacity:1;" d="M 426.425781 324.796875 L 445.617188 358.03125 L 412.375 377.226562 Z M 426.425781 324.796875 "/>
<path style=" stroke:none;fill-rule:evenodd;fill:rgb(11.764526%,70.979309%,22.744751%);fill-opacity:1;" d="M 459.660156 382.367188 L 440.476562 349.132812 L 407.234375 368.316406 Z M 459.660156 382.367188 "/>
<path style=" stroke:none;fill-rule:evenodd;fill:rgb(11.764526%,70.979309%,22.744751%);fill-opacity:1;" d="M 459.660156 382.367188 L 421.285156 382.367188 L 421.285156 343.988281 Z M 459.660156 382.367188 "/>
<path style=" stroke:none;fill-rule:evenodd;fill:rgb(11.764526%,70.979309%,22.744751%);fill-opacity:1;" d="M 459.660156 343.988281 L 421.285156 343.988281 L 421.285156 382.367188 Z M 459.660156 343.988281 "/>
<path style=" stroke:none;fill-rule:evenodd;fill:rgb(11.764526%,70.979309%,22.744751%);fill-opacity:1;" d="M 459.660156 343.988281 L 440.476562 377.226562 L 407.234375 358.03125 Z M 459.660156 343.988281 "/>
<path style=" stroke:none;fill-rule:evenodd;fill:rgb(11.764526%,70.979309%,22.744751%);fill-opacity:1;" d="M 426.425781 401.558594 L 445.617188 368.316406 L 412.375 349.132812 Z M 426.425781 401.558594 "/>
<path style=" stroke:none;fill-rule:evenodd;fill:rgb(11.764526%,70.979309%,22.744751%);fill-opacity:1;" d="M 426.425781 401.558594 L 407.234375 368.316406 L 440.476562 349.132812 Z M 426.425781 401.558594 "/>
<path style=" stroke:none;fill-rule:evenodd;fill:rgb(11.764526%,70.979309%,22.744751%);fill-opacity:1;" d="M 393.183594 343.988281 L 412.375 377.226562 L 445.617188 358.03125 Z M 393.183594 343.988281 "/>
<path style=" stroke:none;fill-rule:evenodd;fill:rgb(11.764526%,70.979309%,22.744751%);fill-opacity:1;" d="M 393.183594 343.988281 L 431.566406 343.988281 L 431.566406 382.367188 Z M 393.183594 343.988281 "/>
<path style=" stroke:none;fill-rule:evenodd;fill:rgb(80.783081%,6.666565%,14.901733%);fill-opacity:1;" d="M 499.546875 205.050781 L 483.8125 232.308594 L 511.070312 248.042969 Z M 499.546875 205.050781 "/>
<path style=" stroke:none;fill-rule:evenodd;fill:rgb(80.783081%,6.666565%,14.901733%);fill-opacity:1;" d="M 499.546875 205.050781 L 515.285156 232.308594 L 488.03125 248.042969 Z M 499.546875 205.050781 "/>
<path style=" stroke:none;fill-rule:evenodd;fill:rgb(80.783081%,6.666565%,14.901733%);fill-opacity:1;" d="M 526.804688 252.261719 L 511.070312 225.003906 L 483.8125 240.742188 Z M 526.804688 252.261719 "/>
<path style=" stroke:none;fill-rule:evenodd;fill:rgb(80.783081%,6.666565%,14.901733%);fill-opacity:1;" d="M 526.804688 252.261719 L 495.332031 252.261719 L 495.332031 220.785156 Z M 526.804688 252.261719 "/>
<path style=" stroke:none;fill-rule:evenodd;fill:rgb(80.783081%,6.666565%,14.901733%);fill-opacity:1;" d="M 472.292969 252.261719 L 503.765625 252.261719 L 503.765625 220.785156 Z M 472.292969 252.261719 "/>
<path style=" stroke:none;fill-rule:evenodd;fill:rgb(80.783081%,6.666565%,14.901733%);fill-opacity:1;" d="M 472.292969 252.261719 L 488.03125 225.003906 L 515.285156 240.742188 Z M 472.292969 252.261719 "/>
<path style=" stroke:none;fill-rule:evenodd;fill:rgb(80.783081%,6.666565%,14.901733%);fill-opacity:1;" d="M 499.546875 267.996094 L 515.285156 240.742188 L 488.03125 225.003906 Z M 499.546875 267.996094 "/>
<path style=" stroke:none;fill-rule:evenodd;fill:rgb(80.783081%,6.666565%,14.901733%);fill-opacity:1;" d="M 499.546875 267.996094 L 483.8125 240.742188 L 511.070312 225.003906 Z M 499.546875 267.996094 "/>
<path style=" stroke:none;fill-rule:evenodd;fill:rgb(80.783081%,6.666565%,14.901733%);fill-opacity:1;" d="M 472.292969 220.785156 L 488.03125 248.042969 L 515.285156 232.308594 Z M 472.292969 220.785156 "/>
<path style=" stroke:none;fill-rule:evenodd;fill:rgb(80.783081%,6.666565%,14.901733%);fill-opacity:1;" d="M 472.292969 220.785156 L 503.765625 220.785156 L 503.765625 252.261719 Z M 472.292969 220.785156 "/>
<path style=" stroke:none;fill-rule:evenodd;fill:rgb(80.783081%,6.666565%,14.901733%);fill-opacity:1;" d="M 526.804688 220.785156 L 495.332031 220.785156 L 495.332031 252.261719 Z M 526.804688 220.785156 "/>
<path style=" stroke:none;fill-rule:evenodd;fill:rgb(80.783081%,6.666565%,14.901733%);fill-opacity:1;" d="M 526.804688 220.785156 L 511.070312 248.042969 L 483.8125 232.308594 Z M 526.804688 220.785156 "/>
<path style=" stroke:none;fill-rule:evenodd;fill:rgb(80.783081%,6.666565%,14.901733%);fill-opacity:1;" d="M 599.929688 378.910156 L 584.191406 351.65625 L 556.941406 367.394531 Z M 599.929688 378.910156 "/>
<path style=" stroke:none;fill-rule:evenodd;fill:rgb(80.783081%,6.666565%,14.901733%);fill-opacity:1;" d="M 599.929688 378.910156 L 568.460938 378.910156 L 568.460938 347.445312 Z M 599.929688 378.910156 "/>
<path style=" stroke:none;fill-rule:evenodd;fill:rgb(80.783081%,6.666565%,14.901733%);fill-opacity:1;" d="M 545.421875 378.910156 L 576.890625 378.910156 L 576.890625 347.445312 Z M 545.421875 378.910156 "/>
<path style=" stroke:none;fill-rule:evenodd;fill:rgb(80.783081%,6.666565%,14.901733%);fill-opacity:1;" d="M 545.421875 378.910156 L 561.152344 351.65625 L 588.410156 367.394531 Z M 545.421875 378.910156 "/>
<path style=" stroke:none;fill-rule:evenodd;fill:rgb(80.783081%,6.666565%,14.901733%);fill-opacity:1;" d="M 572.671875 331.710938 L 556.941406 358.964844 L 584.191406 374.695312 Z M 572.671875 331.710938 "/>
<path style=" stroke:none;fill-rule:evenodd;fill:rgb(80.783081%,6.666565%,14.901733%);fill-opacity:1;" d="M 572.671875 331.710938 L 588.410156 358.964844 L 561.152344 374.695312 Z M 572.671875 331.710938 "/>
<path style=" stroke:none;fill-rule:evenodd;fill:rgb(80.783081%,6.666565%,14.901733%);fill-opacity:1;" d="M 545.421875 347.445312 L 561.152344 374.695312 L 588.410156 358.964844 Z M 545.421875 347.445312 "/>
<path style=" stroke:none;fill-rule:evenodd;fill:rgb(80.783081%,6.666565%,14.901733%);fill-opacity:1;" d="M 545.421875 347.445312 L 576.890625 347.445312 L 576.890625 378.910156 Z M 545.421875 347.445312 "/>
<path style=" stroke:none;fill-rule:evenodd;fill:rgb(80.783081%,6.666565%,14.901733%);fill-opacity:1;" d="M 599.929688 347.445312 L 568.460938 347.445312 L 568.460938 378.910156 Z M 599.929688 347.445312 "/>
<path style=" stroke:none;fill-rule:evenodd;fill:rgb(80.783081%,6.666565%,14.901733%);fill-opacity:1;" d="M 599.929688 347.445312 L 584.191406 374.695312 L 556.941406 358.964844 Z M 599.929688 347.445312 "/>
<path style=" stroke:none;fill-rule:evenodd;fill:rgb(80.783081%,6.666565%,14.901733%);fill-opacity:1;" d="M 572.671875 394.648438 L 588.410156 367.394531 L 561.152344 351.65625 Z M 572.671875 394.648438 "/>
<path style=" stroke:none;fill-rule:evenodd;fill:rgb(80.783081%,6.666565%,14.901733%);fill-opacity:1;" d="M 572.671875 394.648438 L 556.941406 367.394531 L 584.191406 351.65625 Z M 572.671875 394.648438 "/>
<path style=" stroke:none;fill-rule:evenodd;fill:rgb(80.783081%,6.666565%,14.901733%);fill-opacity:1;" d="M 399.167969 378.910156 L 430.640625 378.910156 L 430.640625 347.445312 Z M 399.167969 378.910156 "/>
<path style=" stroke:none;fill-rule:evenodd;fill:rgb(80.783081%,6.666565%,14.901733%);fill-opacity:1;" d="M 399.167969 378.910156 L 414.90625 351.65625 L 442.160156 367.394531 Z M 399.167969 378.910156 "/>
<path style=" stroke:none;fill-rule:evenodd;fill:rgb(80.783081%,6.666565%,14.901733%);fill-opacity:1;" d="M 426.425781 331.710938 L 410.691406 358.964844 L 437.945312 374.695312 Z M 426.425781 331.710938 "/>
<path style=" stroke:none;fill-rule:evenodd;fill:rgb(80.783081%,6.666565%,14.901733%);fill-opacity:1;" d="M 426.425781 331.710938 L 442.160156 358.964844 L 414.90625 374.695312 Z M 426.425781 331.710938 "/>
<path style=" stroke:none;fill-rule:evenodd;fill:rgb(80.783081%,6.666565%,14.901733%);fill-opacity:1;" d="M 453.679688 378.910156 L 437.945312 351.65625 L 410.691406 367.394531 Z M 453.679688 378.910156 "/>
<path style=" stroke:none;fill-rule:evenodd;fill:rgb(80.783081%,6.666565%,14.901733%);fill-opacity:1;" d="M 453.679688 378.910156 L 422.207031 378.910156 L 422.207031 347.445312 Z M 453.679688 378.910156 "/>
<path style=" stroke:none;fill-rule:evenodd;fill:rgb(80.783081%,6.666565%,14.901733%);fill-opacity:1;" d="M 453.679688 347.445312 L 422.207031 347.445312 L 422.207031 378.910156 Z M 453.679688 347.445312 "/>
<path style=" stroke:none;fill-rule:evenodd;fill:rgb(80.783081%,6.666565%,14.901733%);fill-opacity:1;" d="M 453.679688 347.445312 L 437.945312 374.695312 L 410.691406 358.964844 Z M 453.679688 347.445312 "/>
<path style=" stroke:none;fill-rule:evenodd;fill:rgb(80.783081%,6.666565%,14.901733%);fill-opacity:1;" d="M 426.425781 394.648438 L 442.160156 367.394531 L 414.90625 351.65625 Z M 426.425781 394.648438 "/>
<path style=" stroke:none;fill-rule:evenodd;fill:rgb(80.783081%,6.666565%,14.901733%);fill-opacity:1;" d="M 426.425781 394.648438 L 410.691406 367.394531 L 437.945312 351.65625 Z M 426.425781 394.648438 "/>
<path style=" stroke:none;fill-rule:evenodd;fill:rgb(80.783081%,6.666565%,14.901733%);fill-opacity:1;" d="M 399.167969 347.445312 L 414.90625 374.695312 L 442.160156 358.964844 Z M 399.167969 347.445312 "/>
<path style=" stroke:none;fill-rule:evenodd;fill:rgb(80.783081%,6.666565%,14.901733%);fill-opacity:1;" d="M 399.167969 347.445312 L 430.640625 347.445312 L 430.640625 378.910156 Z M 399.167969 347.445312 "/>
</g>
</svg>
